**kern	**silbe	**harmony	**phrase	**leadinstrument	**rhyme	**timestamp	**harte
*ICvox	*	*M4/4	*	*	*	*	*M4/4
*VRlead	*	*	*	*	*	*	*
*Hstimme	*	*	*	*	*	*	*
*D:	*	*D:	*	*	*	*	*D:
r;	.	1r;	.	r	.	0	N.C.
=1	=1	=1	=1	=1	=1	=1	=1
*>Letter>A	*>Letter>A	*>Letter>A	*>Letter>A	*>Letter>A	*>Letter>A	*>Letter>A	*>Letter>A
*>Label>Intro	*>Label>Intro	*>Label>Intro	*>Label>Intro	*>Label>Intro	*>Label>Intro	*>Label>Intro	*>Label>Intro
*M4/4	*	*	*	*	*	*	*
*clefG2	*	*	*	*	*	*	*
1r	.	1DM	newline	guitar	.	0.395	D:maj
=2	=2	=2	=2	=2	=2	=2	=2
1r	.	1DM	.	guitar	.	1.887	D:maj
=3	=3	=3	=3	=3	=3	=3	=3
1r	.	1DM	.	guitar	.	3.379	D:maj
=4	=4	=4	=4	=4	=4	=4	=4
1r	.	1DM	.	guitar	.	4.871	D:maj
=5	=5	=5	=5	=5	=5	=5	=5
1r	.	1BM	newline	guitar	.	6.363	B:maj
=6	=6	=6	=6	=6	=6	=6	=6
1r	.	1BM	.	guitar	.	7.849	B:maj
=7	=7	=7	=7	=7	=7	=7	=7
1r	.	1BM	.	guitar	.	9.335	B:maj
=8	=8	=8	=8	=8	=8	=8	=8
1r	.	1BM	.	guitar	.	10.822	B:maj
=9	=9	=9	=9	=9	=9	=9	=9
1r	.	1DM	newline	guitar	.	12.308	D:maj
=10	=10	=10	=10	=10	=10	=10	=10
1r	.	1DM	.	guitar	.	13.766	D:maj
=11	=11	=11	=11	=11	=11	=11	=11
1r	.	1DM	.	guitar	.	15.224	D:maj
=12	=12	=12	=12	=12	=12	=12	=12
1r	.	1DM	.	guitar	.	16.683	D:maj
=13	=13	=13	=13	=13	=13	=13	=13
1r	.	1BM	newline	guitar	.	18.141	B:maj
=14	=14	=14	=14	=14	=14	=14	=14
1r	.	1BM	.	guitar	.	19.6	B:maj
=15	=15	=15	=15	=15	=15	=15	=15
1r	.	1BM	.	guitar	.	21.058	B:maj
=16	=16	=16	=16	=16	=16	=16	=16
1r	.	1BM	.	guitar	.	22.516	B:maj
=17	=17	=17	=17	=17	=17	=17	=17
*>Letter>A	*>Letter>A	*>Letter>A	*>Letter>A	*>Letter>A	*>Letter>A	*>Letter>A	*>Letter>A
*>Label>Verse	*>Label>Verse	*>Label>Verse	*>Label>Verse	*>Label>Verse	*>Label>Verse	*>Label>Verse	*>Label>Verse
4d	One	1DM	newline	voice	.	23.974	D:maj
4d	way	.	.	.	.	.	.
4r	.	.	.	.	.	.	.
8d	or	.	.	.	.	.	.
8c#	a-	.	.	.	.	.	.
=18	=18	=18	=18	=18	=18	=18	=18
4d	-not-	1DM	.	voice	.	25.437	D:maj
4d	-her:	.	.	.	.	.	.
8r	.	.	.	.	.	.	.
8d	I'm	.	.	.	.	.	.
8d	gon-	.	.	.	.	.	.
8c#	-na	.	.	.	.	.	.
=19	=19	=19	=19	=19	=19	=19	=19
4d	find	1DM	.	voice	.	26.9	D:maj
4d	ya.	.	.	.	.	.	.
8r	.	.	.	.	.	.	.
8d	I'm	.	.	.	.	.	.
8d	gon-	.	.	.	.	.	.
8c#	-na	.	.	.	.	.	.
=20	=20	=20	=20	=20	=20	=20	=20
8d	get-	1DM	.	voice	.	28.363	D:maj
8c#	-cha	.	.	.	.	.	.
8d	get-	.	.	.	.	.	.
8c#	-cha	.	.	.	.	.	.
8d	get-	.	.	.	.	.	.
8c#	-cha	.	.	.	.	.	.
8d	get-	.	.	.	.	.	.
8B	-cha.	.	.	.	.	.	.
=21	=21	=21	=21	=21	=21	=21	=21
4B	One	1BM	newline	voice	.	29.825	B:maj
4d	way	.	.	.	.	.	.
4r	.	.	.	.	.	.	.
8B	or	.	.	.	.	.	.
8A	a-	.	.	.	.	.	.
=22	=22	=22	=22	=22	=22	=22	=22
4B	-not-	1BM	.	voice	.	31.322	B:maj
4F#	-her:	.	.	.	.	.	.
8r	.	.	.	.	.	.	.
8B	I'm	.	.	.	.	.	.
8B	gon-	.	.	.	.	.	.
8A	-na	.	.	.	.	.	.
=23	=23	=23	=23	=23	=23	=23	=23
4B	win	1BM	.	voice	.	32.819	B:maj
4F#	ya.	.	.	.	.	.	.
8r	.	.	.	.	.	.	.
8A	I'm	.	.	.	.	.	.
8B	gon-	.	.	.	.	.	.
8A	-na	.	.	.	.	.	.
=24	=24	=24	=24	=24	=24	=24	=24
8d	get-	1BM	.	voice	.	34.315	B:maj
8c#	-cha	.	.	.	.	.	.
8d	get-	.	.	.	.	.	.
8c#	-cha	.	.	.	.	.	.
8d	get-	.	.	.	.	.	.
8c#	-cha	.	.	.	.	.	.
8d	get-	.	.	.	.	.	.
8c#	-cha.	.	.	.	.	.	.
=25	=25	=25	=25	=25	=25	=25	=25
4d	One	1DM	newline	voice	.	35.812	D:maj
4d	way	.	.	.	.	.	.
4r	.	.	.	.	.	.	.
8d	or	.	.	.	.	.	.
8c#	a-	.	.	.	.	.	.
=26	=26	=26	=26	=26	=26	=26	=26
4d	-no-	1DM	.	voice	.	37.269	D:maj
4d	-ther:	.	.	.	.	.	.
8r	.	.	.	.	.	.	.
8d	I'm	.	.	.	.	.	.
8d	gon-	.	.	.	.	.	.
8c#	-na	.	.	.	.	.	.
=27	=27	=27	=27	=27	=27	=27	=27
4d	see	1DM	.	voice	.	38.726	D:maj
4d	ya.	.	.	.	.	.	.
8r	.	.	.	.	.	.	.
8f#	I'm	.	.	.	.	.	.
8f#	gon-	.	.	.	.	.	.
8e	-na	.	.	.	.	.	.
=28	=28	=28	=28	=28	=28	=28	=28
8f#	meet-	1DM	.	voice	.	40.183	D:maj
8e	-cha	.	.	.	.	.	.
8f#	meet-	.	.	.	.	.	.
8e	-cha	.	.	.	.	.	.
8f#	meet-	.	.	.	.	.	.
8e	-cha	.	.	.	.	.	.
8f#	meet-	.	.	.	.	.	.
8d	-cha.	.	.	.	.	.	.
=29	=29	=29	=29	=29	=29	=29	=29
4B	One	1BM	newline	voice	.	41.639	B:maj
4d	day,	.	.	.	.	.	.
4r	.	.	.	.	.	.	.
8B	may-	.	.	.	.	.	.
8A	-be	.	.	.	.	.	.
=30	=30	=30	=30	=30	=30	=30	=30
4d	next	1BM	.	voice	.	43.15	B:maj
4B	week:	.	.	.	.	.	.
8r	.	.	.	.	.	.	.
8B	I'm	.	.	.	.	.	.
8B	gon-	.	.	.	.	.	.
8A	-na	.	.	.	.	.	.
=31	=31	=31	=31	=31	=31	=31	=31
4d	meet	1BM	.	voice	.	44.662	B:maj
4B	ya.	.	.	.	.	.	.
8r	.	.	.	.	.	.	.
8B	I'm	.	.	.	.	.	.
8d	gon-	.	.	.	.	.	.
8B	-na	.	.	.	.	.	.
=32	=32	=32	=32	=32	=32	=32	=32
8d	meet	1BM	.	voice	.	46.173	B:maj
8B	ya.	.	.	.	.	.	.
8r	.	.	.	.	.	.	.
8B	I'll	.	.	.	.	.	.
8d	meet	.	.	.	.	.	.
8B	ya.	.	.	.	.	.	.
4r	.	.	.	.	.	.	.
=33	=33	=33	=33	=33	=33	=33	=33
*>Letter>B	*>Letter>B	*>Letter>B	*>Letter>B	*>Letter>B	*>Letter>B	*>Letter>B	*>Letter>B
*>Label>Chorus	*>Label>Chorus	*>Label>Chorus	*>Label>Chorus	*>Label>Chorus	*>Label>Chorus	*>Label>Chorus	*>Label>Chorus
1G	I	1GM	newline	voice	.	47.684	G:maj
=34	=34	=34	=34	=34	=34	=34	=34
1B	will	1Bm	.	voice	.	49.196	B:min
=35	=35	=35	=35	=35	=35	=35	=35
4.c#	drive	1AM	.	voice	.	50.709	A:maj
4.B	past	.	.	.	.	.	.
4A	your	.	.	.	.	.	.
=36	=36	=36	=36	=36	=36	=36	=36
2.F#	house;	1F#m	.	voice	A	52.222	F#:min
4r	.	.	.	.	.	.	.
=37	=37	=37	=37	=37	=37	=37	=37
1G	And	1GM	newline	voice	.	53.734	G:maj
=38	=38	=38	=38	=38	=38	=38	=38
2B	if	1Bm	.	voice	.	55.24	B:min
4r	.	.	.	.	.	.	.
4B	the	.	.	.	.	.	.
=39	=39	=39	=39	=39	=39	=39	=39
4.c#	lights	1AM	.	voice	.	56.747	A:maj
4.B	are	.	.	.	.	.	.
4A	all	.	.	.	.	.	.
=40	=40	=40	=40	=40	=40	=40	=40
2F#	down:	1F#m	.	voice	A	58.253	F#:min
4r	.	.	.	.	.	.	.
4F#	I'll	.	.	.	.	.	.
=41	=41	=41	=41	=41	=41	=41	=41
4.G	see	2GM	newline	voice	.	59.759	G:maj
4.A	who's	.	.	.	.	.	.
.	.	4AM	.	voice	.	60.505	A:maj
4B	a-	4Bm	.	voice	.	60.879	B:min
=42	=42	=42	=42	=42	=42	=42	=42
1E	-round.	1Em	.	voice	A	61.252	E:min
=43	=43	=43	=43	=43	=43	=43	=43
1F#	_	1F#M	.	voice	.	62.745	F#:maj
=44	=44	=44	=44	=44	=44	=44	=44
1r	.	1F#M	.	voice	.	64.238	F#:maj
=45	=45	=45	=45	=45	=45	=45	=45
*>Letter>A	*>Letter>A	*>Letter>A	*>Letter>A	*>Letter>A	*>Letter>A	*>Letter>A	*>Letter>A
*>Label>Verse	*>Label>Verse	*>Label>Verse	*>Label>Verse	*>Label>Verse	*>Label>Verse	*>Label>Verse	*>Label>Verse
4d	One	1DM	newline	voice	.	65.731	D:maj
4d	way	.	.	.	.	.	.
4r	.	.	.	.	.	.	.
8d	or	.	.	.	.	.	.
8c#	a-	.	.	.	.	.	.
=46	=46	=46	=46	=46	=46	=46	=46
4d	-not-	1DM	.	voice	.	67.226	D:maj
4d	-her:	.	.	.	.	.	.
8r	.	.	.	.	.	.	.
8d	I'm	.	.	.	.	.	.
8d	gon-	.	.	.	.	.	.
8c#	-na	.	.	.	.	.	.
=47	=47	=47	=47	=47	=47	=47	=47
4d	find	1DM	.	voice	.	68.722	D:maj
4d	ya.	.	.	.	.	.	.
8r	.	.	.	.	.	.	.
8f#	I'm	.	.	.	.	.	.
8f#	gon-	.	.	.	.	.	.
8e	-na	.	.	.	.	.	.
=48	=48	=48	=48	=48	=48	=48	=48
8f#	get-	1DM	.	voice	.	70.217	D:maj
8e	-cha	.	.	.	.	.	.
8f#	get-	.	.	.	.	.	.
8e	-cha	.	.	.	.	.	.
8f#	get-	.	.	.	.	.	.
8e	-cha	.	.	.	.	.	.
8f#	get-	.	.	.	.	.	.
8e	-cha.	.	.	.	.	.	.
=49	=49	=49	=49	=49	=49	=49	=49
4B	One	1BM	newline	voice	.	71.713	B:maj
4d	way	.	.	.	.	.	.
4r	.	.	.	.	.	.	.
8B	or	.	.	.	.	.	.
8A	a-	.	.	.	.	.	.
=50	=50	=50	=50	=50	=50	=50	=50
4B	-not-	1BM	.	voice	.	73.202	B:maj
4d	-her:	.	.	.	.	.	.
8r	.	.	.	.	.	.	.
8d	I'm	.	.	.	.	.	.
8d	gon-	.	.	.	.	.	.
8c#	-na	.	.	.	.	.	.
=51	=51	=51	=51	=51	=51	=51	=51
4d	win	1BM	.	voice	.	74.691	B:maj
4B	ya.	.	.	.	.	.	.
4r	.	.	.	.	.	.	.
8r	.	.	.	.	.	.	.
8d	I'll	.	.	.	.	.	.
=52	=52	=52	=52	=52	=52	=52	=52
8f#	get-	1BM	.	voice	.	76.181	B:maj
8d	-cha.	.	.	.	.	.	.
8r	.	.	.	.	.	.	.
8d	I'll	.	.	.	.	.	.
8f#	get-	.	.	.	.	.	.
8d	-cha.	.	.	.	.	.	.
4r	.	.	.	.	.	.	.
=53	=53	=53	=53	=53	=53	=53	=53
4d	One	1DM	newline	voice	.	77.67	D:maj
4d	way	.	.	.	.	.	.
4r	.	.	.	.	.	.	.
8d	or	.	.	.	.	.	.
8c#	a-	.	.	.	.	.	.
=54	=54	=54	=54	=54	=54	=54	=54
4d	-noth-	1DM	.	voice	.	79.158	D:maj
4d	-er	.	.	.	.	.	.
8r	.	.	.	.	.	.	.
8d	I'm	.	.	.	.	.	.
8d	gon-	.	.	.	.	.	.
8c#	-na	.	.	.	.	.	.
=55	=55	=55	=55	=55	=55	=55	=55
4d	see	1DM	.	voice	.	80.647	D:maj
4d	ya.	.	.	.	.	.	.
8r	.	.	.	.	.	.	.
8f#	I'm	.	.	.	.	.	.
8f#	gon-	.	.	.	.	.	.
8e	-na	.	.	.	.	.	.
=56	=56	=56	=56	=56	=56	=56	=56
8f#	meet-	1DM	.	voice	.	82.135	D:maj
8e	-cha	.	.	.	.	.	.
8f#	meet-	.	.	.	.	.	.
8e	-cha	.	.	.	.	.	.
8f#	meet-	.	.	.	.	.	.
8e	-cha	.	.	.	.	.	.
8f#	meet-	.	.	.	.	.	.
8e	-cha.	.	.	.	.	.	.
=57	=57	=57	=57	=57	=57	=57	=57
4B	One	1BM	newline	voice	.	83.624	B:maj
4d	day,	.	.	.	.	.	.
4r	.	.	.	.	.	.	.
8e	may-	.	.	.	.	.	.
8d	-be	.	.	.	.	.	.
=58	=58	=58	=58	=58	=58	=58	=58
8e	next	1BM	.	voice	.	85.117	B:maj
8B	week:	.	.	.	.	.	.
4r	.	.	.	.	.	.	.
8r	.	.	.	.	.	.	.
8e	I'm	.	.	.	.	.	.
8e	gon-	.	.	.	.	.	.
8d	-na	.	.	.	.	.	.
=59	=59	=59	=59	=59	=59	=59	=59
4e	meet	1BM	.	voice	.	86.611	B:maj
4B	ya.	.	.	.	.	.	.
4r	.	.	.	.	.	.	.
8r	.	.	.	.	.	.	.
8d	I'll	.	.	.	.	.	.
=60	=60	=60	=60	=60	=60	=60	=60
8e	meet	1BM	.	voice	.	88.104	B:maj
8B	ya	.	.	.	.	.	.
8r	.	.	.	.	.	.	.
[8B	aaa;	.	.	.	.	.	.
2B]	_	.	.	.	.	.	.
=61	=61	=61	=61	=61	=61	=61	=61
*>Letter>B	*>Letter>B	*>Letter>B	*>Letter>B	*>Letter>B	*>Letter>B	*>Letter>B	*>Letter>B
*>Label>Chorus	*>Label>Chorus	*>Label>Chorus	*>Label>Chorus	*>Label>Chorus	*>Label>Chorus	*>Label>Chorus	*>Label>Chorus
1G	And	1GM	newline	voice	.	89.597	G:maj
=62	=62	=62	=62	=62	=62	=62	=62
2B	if	1Bm	.	voice	.	91.1	B:min
4r	.	.	.	.	.	.	.
4B	the	.	.	.	.	.	.
=63	=63	=63	=63	=63	=63	=63	=63
4.c#	lights	1AM	.	voice	.	92.602	A:maj
4.B	are	.	.	.	.	.	.
4A	all	.	.	.	.	.	.
=64	=64	=64	=64	=64	=64	=64	=64
2.F#	out:	1F#m	.	voice	A	94.104	F#:min
4r	.	.	.	.	.	.	.
=65	=65	=65	=65	=65	=65	=65	=65
1G	I'll	1GM	newline	voice	.	95.606	G:maj
=66	=66	=66	=66	=66	=66	=66	=66
4.B	fo-	1Bm	.	voice	.	97.11	B:min
4.B	-llow	.	.	.	.	.	.
4r	.	.	.	.	.	.	.
=67	=67	=67	=67	=67	=67	=67	=67
4.c#	your	1AM	.	voice	.	98.614	A:maj
4.B	bus	.	.	.	.	.	.
[4A	down-	.	.	.	A	.	.
=68	=68	=68	=68	=68	=68	=68	=68
8A]	_	1F#m	.	voice	.	100.117	F#:min
[8F#	-town,	.	.	.	A	.	.
4F#]	_	.	.	.	.	.	.
4r	.	.	.	.	.	.	.
4F#	See	.	.	.	.	.	.
=69	=69	=69	=69	=69	=69	=69	=69
4.G	who's	2GM	newline	voice	.	101.621	G:maj
4.A	han-	.	.	.	.	.	.
.	.	4AM	.	voice	.	102.354	A:maj
4B	-ging	4Bm	.	voice	.	102.721	B:min
=70	=70	=70	=70	=70	=70	=70	=70
1E	out	1Em	.	voice	A	103.088	E:min
=71	=71	=71	=71	=71	=71	=71	=71
1F#	_	1F#M	.	voice	.	104.554	F#:maj
=72	=72	=72	=72	=72	=72	=72	=72
1r	.	1F#M	.	voice	.	106.021	F#:maj
=73	=73	=73	=73	=73	=73	=73	=73
1r	.	1F#M	newline	drums	.	107.488	F#:maj
=74	=74	=74	=74	=74	=74	=74	=74
1r	.	1F#M	.	drums	.	108.896	F#:maj
=75	=75	=75	=75	=75	=75	=75	=75
*>Letter>C	*>Letter>C	*>Letter>C	*>Letter>C	*>Letter>C	*>Letter>C	*>Letter>C	*>Letter>C
*>Label>Solo	*>Label>Solo	*>Label>Solo	*>Label>Solo	*>Label>Solo	*>Label>Solo	*>Label>Solo	*>Label>Solo
1r	.	1F#M	newline	guitar	.	110.304	F#:maj
=76	=76	=76	=76	=76	=76	=76	=76
1r	.	1F#M	.	guitar	.	111.763	F#:maj
=77	=77	=77	=77	=77	=77	=77	=77
1r	.	1AM	.	guitar	.	113.222	A:maj
=78	=78	=78	=78	=78	=78	=78	=78
1r	.	1C#m	.	guitar	.	114.681	C#:min
=79	=79	=79	=79	=79	=79	=79	=79
1r	.	1F#M	newline	guitar	.	116.14	F#:maj
=80	=80	=80	=80	=80	=80	=80	=80
1r	.	1F#M	.	guitar	.	117.578	F#:maj
=81	=81	=81	=81	=81	=81	=81	=81
1r	.	1AM	.	guitar	.	119.016	A:maj
=82	=82	=82	=82	=82	=82	=82	=82
1r	.	1C#m	.	guitar	.	120.454	C#:min
=83	=83	=83	=83	=83	=83	=83	=83
1r	.	1BM	newline	guitar	.	121.892	B:maj
=84	=84	=84	=84	=84	=84	=84	=84
1r	.	1EM	.	guitar	.	123.381	E:maj
=85	=85	=85	=85	=85	=85	=85	=85
1r	.	1F#M	.	guitar	.	124.871	F#:maj
=86	=86	=86	=86	=86	=86	=86	=86
1r	.	1F#M	.	guitar	.	126.361	F#:maj
=87	=87	=87	=87	=87	=87	=87	=87
1r	.	1AM	newline	guitar	.	127.851	A:maj
=88	=88	=88	=88	=88	=88	=88	=88
1r	.	1AM	.	guitar	.	129.316	A:maj
=89	=89	=89	=89	=89	=89	=89	=89
1r	.	1BM	.	guitar	.	130.78	B:maj
=90	=90	=90	=90	=90	=90	=90	=90
1r	.	1BM	.	guitar	.	132.245	B:maj
=91	=91	=91	=91	=91	=91	=91	=91
*>Letter>A	*>Letter>A	*>Letter>A	*>Letter>A	*>Letter>A	*>Letter>A	*>Letter>A	*>Letter>A
*>Label>Verse	*>Label>Verse	*>Label>Verse	*>Label>Verse	*>Label>Verse	*>Label>Verse	*>Label>Verse	*>Label>Verse
4f#	One	1DM	newline	voice	.	133.71	D:maj
2a	way	.	.	.	.	.	.
8f#	or	.	.	.	.	.	.
8e	a-	.	.	.	.	.	.
=92	=92	=92	=92	=92	=92	=92	=92
4f#	-not-	1DM	.	voice	.	135.205	D:maj
4d	-her:	.	.	.	.	.	.
8r	.	.	.	.	.	.	.
8f#	I'm	.	.	.	.	.	.
8f#	gon-	.	.	.	.	.	.
8e	-na	.	.	.	.	.	.
=93	=93	=93	=93	=93	=93	=93	=93
4f#	lo-	1DM	.	voice	.	136.699	D:maj
4d	-se.	.	.	.	.	.	.
8r	.	.	.	.	.	.	.
8e	I'm	.	.	.	.	.	.
8f#	gon-	.	.	.	.	.	.
8e	-na	.	.	.	.	.	.
=94	=94	=94	=94	=94	=94	=94	=94
8f#	give	1DM	.	voice	.	138.193	D:maj
8e	you	.	.	.	.	.	.
8f#	the	.	.	.	.	.	.
8d	slip.	.	.	.	B	.	.
2r	.	.	.	.	.	.	.
=95	=95	=95	=95	=95	=95	=95	=95
8f#	Slip	1BM	newline	voice	B	139.688	B:maj
8e	of	.	.	.	.	.	.
8f#	the	.	.	.	.	.	.
[8d	lip	.	.	.	B	.	.
4d]	_	.	.	.	.	.	.
8B	or	.	.	.	.	.	.
8A	a-	.	.	.	.	.	.
=96	=96	=96	=96	=96	=96	=96	=96
4B	-not-	1BM	.	voice	.	141.171	B:maj
4d	-her;	.	.	.	.	.	.
8r	.	.	.	.	.	.	.
8B	I'm	.	.	.	.	.	.
8B	gon-	.	.	.	.	.	.
8A	-na	.	.	.	.	.	.
=97	=97	=97	=97	=97	=97	=97	=97
4d	lose	1BM	.	voice	.	142.655	B:maj
4B	ya.	.	.	.	.	.	.
4r	.	.	.	.	.	.	.
8r	.	.	.	.	.	.	.
8f#	I'll	.	.	.	.	.	.
=98	=98	=98	=98	=98	=98	=98	=98
8a	trick	1BM	.	voice	.	144.138	B:maj
8f#	ya.	.	.	.	.	.	.
8r	.	.	.	.	.	.	.
8f#	I'll	.	.	.	.	.	.
8b	trick	.	.	.	.	.	.
8f#	ya.	.	.	.	.	.	.
4r	.	.	.	.	.	.	.
=99	=99	=99	=99	=99	=99	=99	=99
4d	One	1DM	newline	voice	.	145.621	D:maj
4d	way	.	.	.	.	.	.
4r	.	.	.	.	.	.	.
8d	or	.	.	.	.	.	.
8c#	a-	.	.	.	.	.	.
=100	=100	=100	=100	=100	=100	=100	=100
4d	-not-	1DM	.	voice	.	147.1	D:maj
4d	-her:	.	.	.	.	.	.
8r	.	.	.	.	.	.	.
8f#	I'm	.	.	.	.	.	.
8f#	gon-	.	.	.	.	.	.
8e	-na	.	.	.	.	.	.
=101	=101	=101	=101	=101	=101	=101	=101
4f#	lose	1DM	.	voice	.	148.579	D:maj
4d	ya.	.	.	.	.	.	.
8r	.	.	.	.	.	.	.
8f#	I'm	.	.	.	.	.	.
8f#	gon-	.	.	.	.	.	.
8e	-na	.	.	.	.	.	.
=102	=102	=102	=102	=102	=102	=102	=102
8f#	trick	1DM	.	voice	.	150.058	D:maj
8e	ya	.	.	.	.	.	.
8f#	trick	.	.	.	.	.	.
8e	ya	.	.	.	.	.	.
8f#	trick	.	.	.	.	.	.
8e	ya	.	.	.	.	.	.
8f#	trick	.	.	.	.	.	.
8e	ya.	.	.	.	.	.	.
=103	=103	=103	=103	=103	=103	=103	=103
4f#	One	1BM	newline	voice	.	151.537	B:maj
4B	way	.	.	.	.	.	.
4r	.	.	.	.	.	.	.
8f#	or	.	.	.	.	.	.
8e	a-	.	.	.	.	.	.
=104	=104	=104	=104	=104	=104	=104	=104
4f#	-noth-	1BM	.	voice	.	153.014	B:maj
4d#	-er:	.	.	.	.	.	.
8r	.	.	.	.	.	.	.
8f#	I'm	.	.	.	.	.	.
8f#	gon-	.	.	.	.	.	.
8e	-na	.	.	.	.	.	.
=105	=105	=105	=105	=105	=105	=105	=105
4f#	lose	1BM	.	voice	.	154.492	B:maj
4d	ya.	.	.	.	.	.	.
8r	.	.	.	.	.	.	.
8f#	I'm	.	.	.	.	.	.
8f#	gon-	.	.	.	.	.	.
8e	-na	.	.	.	.	.	.
=106	=106	=106	=106	=106	=106	=106	=106
8f#	give	1BM	.	voice	.	155.97	B:maj
8e	you	.	.	.	.	.	.
4f#	the	.	.	.	.	.	.
4d	slip.	.	.	.	.	.	.
4r	.	.	.	.	.	.	.
=107	=107	=107	=107	=107	=107	=107	=107
*>Letter>A2	*>Letter>A2	*>Letter>A2	*>Letter>A2	*>Letter>A2	*>Letter>A2	*>Letter>A2	*>Letter>A2
*>Label>Outro	*>Label>Outro	*>Label>Outro	*>Label>Outro	*>Label>Outro	*>Label>Outro	*>Label>Outro	*>Label>Outro
1r	.	1DM	newline	synthesizer	.	157.448	D:maj
=108	=108	=108	=108	=108	=108	=108	=108
1r	.	1DM	.	synthesizer	.	158.918	D:maj
=109	=109	=109	=109	=109	=109	=109	=109
1r	.	1BM	.	synthesizer	.	160.388	B:maj
=110	=110	=110	=110	=110	=110	=110	=110
1r	.	1BM	.	synthesizer	.	161.858	B:maj
=111	=111	=111	=111	=111	=111	=111	=111
4d	I'll	1DM	newline	voice	.	163.328	D:maj
4A	walk	.	.	.	.	.	.
8d	down	.	.	.	.	.	.
8d	the	.	.	.	.	.	.
4A	mall,	.	.	.	C	.	.
=112	=112	=112	=112	=112	=112	=112	=112
4d	Stand	1DM	.	voice	.	164.814	D:maj
8A	o-	.	.	.	.	.	.
8A	-ver	.	.	.	.	.	.
8d	by	.	.	.	.	.	.
8d	the	.	.	.	.	.	.
4A	wall	.	.	.	C	.	.
=113	=113	=113	=113	=113	=113	=113	=113
4B	where	1BM	.	voice	.	166.299	B:maj
8F#	I	.	.	.	.	.	.
8F#	can	.	.	.	.	.	.
8B	see	.	.	.	.	.	.
8B	it	.	.	.	.	.	.
4F#	all,	.	.	.	C	.	.
=114	=114	=114	=114	=114	=114	=114	=114
4B	Find	1BM	.	voice	.	167.784	B:maj
4F#	out	.	.	.	.	.	.
8B	who	.	.	.	.	.	.
8B	ya	.	.	.	.	.	.
4F#	call,	.	.	.	C	.	.
=115	=115	=115	=115	=115	=115	=115	=115
4d	Lead	1DM	newline	voice	.	169.27	D:maj
4A	you	.	.	.	.	.	.
4d	to	.	.	.	.	.	.
8A	the	.	.	.	.	.	.
8d	su-	.	.	.	.	.	.
=116	=116	=116	=116	=116	=116	=116	=116
8r	.	1DM	.	voice	.	170.747	D:maj
8d	-per-	.	.	.	.	.	.
8A	-mar-	.	.	.	.	.	.
8A	-ket	.	.	.	.	.	.
8d	check-	.	.	.	.	.	.
8d	-out.	.	.	.	A	.	.
8r	.	.	.	.	.	.	.
8F#	Some	.	.	.	.	.	.
=117	=117	=117	=117	=117	=117	=117	=117
8B	spe-	1BM	.	voice	.	172.223	B:maj
8B	-cials	.	.	.	.	.	.
4F#	and	.	.	.	.	.	.
4B	rat	.	.	.	.	.	.
4F#	food.	.	.	.	.	.	.
=118	=118	=118	=118	=118	=118	=118	=118
4B	get	1BM	.	voice	.	173.7	B:maj
4F#	lost	.	.	.	.	.	.
8B	in	.	.	.	.	.	.
8B	the	.	.	.	.	.	.
4F#	crowd.	.	.	.	A	.	.
=119	=119	=119	=119	=119	=119	=119	=119
4f#	One	1DM	newline	voice	.	175.177	D:maj
2a	way	.	.	.	.	.	.
8f#	or	.	.	.	.	.	.
8e	a-	.	.	.	.	.	.
=120	=120	=120	=120	=120	=120	=120	=120
4f#	-not-	1DM	.	voice	.	176.669	D:maj
4d	-her:	.	.	.	.	.	.
8r	.	.	.	.	.	.	.
8f#	I'm	.	.	.	.	.	.
8f#	gon-	.	.	.	.	.	.
8e	-na	.	.	.	.	.	.
=121	=121	=121	=121	=121	=121	=121	=121
8f#	get-	1BM	.	voice	.	178.161	B:maj
8d#	-cha.	.	.	.	.	.	.
8r	.	.	.	.	.	.	.
8e	I'll	.	.	.	.	.	.
8f#	get-	.	.	.	.	.	.
8d#	-cha.	.	.	.	.	.	.
8r	.	.	.	.	.	.	.
8e	I'll	.	.	.	.	.	.
=122	=122	=122	=122	=122	=122	=122	=122
8f#	get-	1BM	.	voice	.	179.653	B:maj
8e	-cha	.	.	.	.	.	.
8f#	get-	.	.	.	.	.	.
8e	-cha	.	.	.	.	.	.
8f#	get-	.	.	.	.	.	.
8e	-cha	.	.	.	.	.	.
8f#	get-	.	.	.	.	.	.
8e	-cha.	.	.	.	.	.	.
=123	=123	=123	=123	=123	=123	=123	=123
4f#	One	1DM	newline	voice	.	181.146	D:maj
2a	way	.	.	.	.	.	.
8f#	or	.	.	.	.	.	.
8e	a-	.	.	.	.	.	.
=124	=124	=124	=124	=124	=124	=124	=124
4f#	-not-	1DM	.	voice	.	182.617	D:maj
4d#	-her:	.	.	.	.	.	.
8r	.	.	.	.	.	.	.
8f#	I'm	.	.	.	.	.	.
8f#	gon-	.	.	.	.	.	.
8e	-na	.	.	.	.	.	.
=125	=125	=125	=125	=125	=125	=125	=125
8f#	get-	1BM	.	voice	.	184.088	B:maj
8d#	-cha.	.	.	.	.	.	.
8r	.	.	.	.	.	.	.
8e	I'll	.	.	.	.	.	.
8f#	get-	.	.	.	.	.	.
8d#	-cha.	.	.	.	.	.	.
8r	.	.	.	.	.	.	.
8e	I'll	.	.	.	.	.	.
=126	=126	=126	=126	=126	=126	=126	=126
8f#	get-	1BM	.	voice	.	185.56	B:maj
8e	-cha	.	.	.	.	.	.
8f#	get-	.	.	.	.	.	.
8e	-cha	.	.	.	.	.	.
8f#	get-	.	.	.	.	.	.
8e	-cha	.	.	.	.	.	.
8f#	get-	.	.	.	.	.	.
8e	-cha.	.	.	.	.	.	.
=127	=127	=127	=127	=127	=127	=127	=127
4f#	One	1DM	newline	voice	.	187.031	D:maj
2a	way	.	.	.	.	.	.
8f#	or	.	.	.	.	.	.
8e	a-	.	.	.	.	.	.
=128	=128	=128	=128	=128	=128	=128	=128
4f#	-not-	1DM	.	voice	.	188.487	D:maj
4d#	-her.	.	.	.	.	.	.
8r	.	.	.	.	.	.	.
8f#	I'm	.	.	.	.	.	.
8f#	gon-	.	.	.	.	.	.
8e	-na	.	.	.	.	.	.
=129	=129	=129	=129	=129	=129	=129	=129
8f#	get-	1BM	.	voice	.	189.943	B:maj
8d#	-cha.	.	.	.	.	.	.
8r	.	.	.	.	.	.	.
8e	I'll	.	.	.	.	.	.
8f#	get-	.	.	.	.	.	.
8d#	-cha.	.	.	.	.	.	.
8r	.	.	.	.	.	.	.
8e	I'll	.	.	.	.	.	.
=130	=130	=130	=130	=130	=130	=130	=130
8f#	get-	1BM	.	voice	.	191.399	B:maj
8e	-cha	.	.	.	.	.	.
8f#	get-	.	.	.	.	.	.
8e	-cha	.	.	.	.	.	.
8f#	get-	.	.	.	.	.	.
8e	-cha	.	.	.	.	.	.
8f#	get-	.	.	.	.	.	.
8e	-cha.	.	.	.	.	.	.
=131	=131	=131	=131	=131	=131	=131	=131
*>Label>>Fadeout	*>Label>>Fadeout	*>Label>>Fadeout	*>Label>>Fadeout	*>Label>>Fadeout	*>Label>>Fadeout	*>Label>>Fadeout	*>Label>>Fadeout
4f#	One	1DM	newline	voice	.	192.855	D:maj
2a	way	.	.	.	.	.	.
8f#	or	.	.	.	.	.	.
8e	a-	.	.	.	.	.	.
=132	=132	=132	=132	=132	=132	=132	=132
4f#	-not-	1DM	.	voice	.	194.305	D:maj
4d#	-her.	.	.	.	.	.	.
8r	.	.	.	.	.	.	.
8f#	I'm	.	.	.	.	.	.
8f#	gon-	.	.	.	.	.	.
8e	-na	.	.	.	.	.	.
=133	=133	=133	=133	=133	=133	=133	=133
8f#	get-	1BM	.	voice	.	195.756	B:maj
8d#	-cha.	.	.	.	.	.	.
8r	.	.	.	.	.	.	.
8e	I'll	.	.	.	.	.	.
8f#	get-	.	.	.	.	.	.
8d#	-cha.	.	.	.	.	.	.
8r	.	.	.	.	.	.	.
8e	I'll	.	.	.	.	.	.
=134	=134	=134	=134	=134	=134	=134	=134
8f#	get-	1BM	.	voice	.	197.207	B:maj
8e	-cha	.	.	.	.	.	.
8f#	get-	.	.	.	.	.	.
8e	-cha	.	.	.	.	.	.
8f#	get-	.	.	.	.	.	.
8e	-cha	.	.	.	.	.	.
8f#	get-	.	.	.	.	.	.
8e	-cha.	.	.	.	.	.	.
=135	=135	=135	=135	=135	=135	=135	=135
4f#	One	1DM	newline	voice	.	198.657	D:maj
2a	way	.	.	.	.	.	.
8f#	or	.	.	.	.	.	.
8e	a-	.	.	.	.	.	.
=136	=136	=136	=136	=136	=136	=136	=136
4f#	-not-	1DM	.	voice	.	199.951	D:maj
4d#	-her.	.	.	.	.	.	.
8r	.	.	.	.	.	.	.
8f#	I'm	.	.	.	.	.	.
8f#	gon-	.	.	.	.	.	.
8e	-na	.	.	.	.	.	.
=137	=137	=137	=137	=137	=137	=137	=137
8f#	get-	1BM	.	voice	.	201.244	B:maj
8d#	-cha.	.	.	.	.	.	.
8r	.	.	.	.	.	.	.
8e	I'll	.	.	.	.	.	.
8f#	get-	.	.	.	.	.	.
8d#	-cha.	.	.	.	.	.	.
8r	.	.	.	.	.	.	.
8e	I'll	.	.	.	.	.	.
=138	=138	=138	=138	=138	=138	=138	=138
8f#	get-	1BM	.	voice	.	202.538	B:maj
8e	-cha	.	.	.	.	.	.
8f#	get-	.	.	.	.	.	.
8e	-cha	.	.	.	.	.	.
8f#	get-	.	.	.	.	.	.
8e	-cha	.	.	.	.	.	.
8f#	get-	.	.	.	.	.	.
8e	-cha.	.	.	.	.	.	.
=139	=139	=139	=139	=139	=139	=139	=139
4f#	One	1DM	.	voice	.	203.831	D:maj
2a	way	.	.	.	.	.	.
8f#	or	.	.	.	.	.	.
8e	a-	.	.	.	.	.	.
r;	.	1r;	.	r	.	205.125	N.C.
r;	.	1r;	.	r	.	208.091	N.C.
*-	*-	*-	*-	*-	*-	*-	*-
!!!BillboardChartDate: 1979/06/16
!!!BillboardPeak: 24
!!!BillboardWeeksOnChart: 14
!!!COC: Blondie
!!!ENC: Nathaniel Condit-Schultz
!!!EST: Awating manual error checking and editing.
!!!OTL: One Way Or Another
!!!RDF**chordsym: original McGill chord annotation + (implied pitch class set, with bass pitch in first position)
!!!RDF**harmony: **recip + pitch class of root + harmonic quality
!!!RDF**leadinstrument: original McGill primary instrumentation annotation
!!!RDF**phrase: newline = linebreak in original McGill transcription
!!!RDF**timestamp: McGill audio timestamp in seconds
!!!RDT: 2017/01/12/
!!!SampleActualRank: 47
!!!SampleID#: 0743
!!!SampleTargetRank: 48
